X: 2064
T: A Scotch Tune
%R: march, reel
B: Henry Playford "Apollo's Banquet", London 1687 (5th Edition)
F: https://archive.org/details/apollosbanquetco01rugg
Z: 2017 John Chambers <jc:trillian.mit.edu>
M: C|
L: 1/8
K: Gm
% - - - - - - - - - -
|:\
D2G2 G2(FG) | A2G2- G2c2 |\
c3d (cA)(GF) | F3G A2(GF) |\
D2G2- G2FG | A2G2- G2f2 |\
d3(c/d/) (fd)(cA) | G4 B4 :|
|:\
(d=e)(fg) (f=e)(dc) | (Bc)(d=e) f3d |\
A2f2 (cA)(GF) | F3G A2(GF) |\
D2G2- G2(FG) |  A2G2 f3g |\
(ag)(fd) (cd)(cA) | G4 B4 |]
% - - - - - - - - - -

%%sep 1 1 500
%%sep 1 1 500

